X:110
T:Hunting Piece. RHu.110
S:R.Hughes MS,1823,Whitchurch,Shrops.
A:Whitchurch , Shropshire
Z:Neil Brookes 2007
M:6/8
L:1/8
Q:3/8=100
R:Air
K:D
A|d>ed ede|fdd d2A|e>fe gfg|aff f2f/g/|a>ba agf|g>ag gfe|!
aa/b/a/b/ agf|gg/a/g/a/ gfe|d/c/d/e/f/g/ agf|[eA][eA][eA][e2A2]::!
A|eee e2f|gec d2d/e/|ffff2g|afde2z|aa/b/a/g/ fga|gg/a/g/f/ efg|!
aa/b/a/g/ fga|gg/a/g/f/ efg|d/c/d/e/f/g/ a/g/f/e/d/c/|Ba^ga2HA|!
d>ed ede|fddd2A|e>fe gfg|afff2z|a3g/f/e/d/c/d/|b3a/g/f/e/^d/e/|!
a>bg f>ge|dd’d’ d’c’b|ad’f gea|dddd2|]

